X:1
T:I'M OUT OF CANDY, DARLING
C:Kevin Cavanaugh
Z:All Rights Reserved
L:1/8
Q:1/4=120
M:4/4
K:A
V:1 treble nm="MusicXML Part"
%%MIDI program 0
V:1
"A" c2- c>B- B3 A- | A2 z z E2- EE |"F9" =F>d- d2- d =c2 B- |"C9" B=G- G4 z/ E=F/- | %4
w: * * * (cavanaugh &|Diethert) * * *|||
w: ||||
"F9" F>d- d2- d =c2 B- |"C9" B =G2- G/AB/-B A2- |"A" A2 E2- EDB,C- | C6 z D |: %8
w: |||* The|
w: ||||
"A" CD- (3:2:2D E2- z EDC | A,A,- A,4 z/ E=G/- |"F9" G3/2E>E-E/ D3/2 E2- E/ | %11
w: 1.cup board's _ bare and the bed|is cold _ I did|_ n't sleep _ last night _|
w: 2. instrum en tal * * *|||
"C9" z2 z2 z2 (3:2:2z E2 |"F9" =GE- (3:2:2E E2- (3:2:2E D2- (3:2:2D E2- | %13
w: I|wait ed _ up _ till _ 4|
w: ||
"C9" E/DE/- E2- E>E- E/DE/- |"A" E3/2A,A,-A, B,2- CC/- | C2 z2 z z/ E/- E/DC/- | %16
w: _ A m _ _ then _ turned out|_ the front _ porch _ light|_ now _ the sat|
w: ||* i _ was check|
"A" C/DC/- CE- E D2 C- | CA,- A,4 z/ E=G/- |"F9" G3/2E>E-E/ D3/2 E2- E/- |"C9" E4 z E/E/- E/E=G/- | %20
w: _ ur day _ sun _ is shin|_ ing _ and its|_ you at _ the door _|_ you need _ a noth|
w: _ ing your _ coat _ for num|_ bers _ that you|_ might have left be hind _|_ _ _ _ that on|
"F9" GE-EE- E/ED/- D/ED/- |"C9" (3:2:2D E2- E/DE/- (3:2:2E D2- D2 | %22
w: _ er _ key _ and some _ pock et|_ change _ and do _ you _|
w: ly proves _ _ _ i've got noth ing to|_ lose _ _ I've _ spent _|
"A" E>A,- A,/G,A,/- (3:2:2A, B,2- (3:2:2B, C2- | C4 z2 AA |"F" A2 =G2"G6" E>D- DE- | %25
w: need some _ thing from _ the _ store|_ But I'm|out of can dy, _ darl|
w: ev' ry thing i thought _ was _ mine|CHORUS: * *||
"A" EA,- A,4 z/ AA/- |"F" A>=G- (3:2:2G E2-"G6" E<D- (3:2:2D E2- |"A" E4 z z/ E/- E/DC/- | %28
w: _ ing _ a smile|_ and _ pat _ ience _ too.|_ You _ could ei|
w: |||
"C#m" C/DC/- (3:2:2C E2- E3 D |"D9" C/A,B,/- (3:2:2B, A,2- A,2 B,2 | %30
w: _ ther re _ place _ or|just leave a _ trace _ but|
w: ||
"F13" B,/=CB,/- (3:2:2B, =G,2- G,E, G,2 | z8 | B,/=CB,/- (3:2:2B, =G,2- G,E, G,2- | G,4 z2 D2 :| %34
w: what are you _ gon _ na do?||what are you _ gon _ na do?|_ (the)|
w: ||||
"A" CD- (3:2:2D E2- z EDC | A,A,- A,4 z/ E=G/- |"F9" G3/2E>E-E/ D3/2 E2- E/- |"C9" !fermata!E8 |] %38
w: cup board's _ bare and the bed|is cold _ I did|_ n't sleep _ last night _|_|
w: ||||

